img/icons/icon-user.svg

<svg fill="none" height="24" viewBox="0 0 24 24" width="24" xmlns="http://www.w3.org/2000/svg"><g stroke="#98bff9" stroke-linecap="round" stroke-linejoin="round" stroke-width="2"><path d="m20 21v-2c0-1.0609-.4214-2.0783-1.1716-2.8284-.7501-.7502-1.7675-1.1716-2.8284-1.1716h-8c-1.06087 0-2.07828.4214-2.82843 1.1716-.75014.7501-1.17157 1.7675-1.17157 2.8284v2"/><path d="m12 11c2.2091 0 4-1.79086 4-4s-1.7909-4-4-4c-2.20914 0-4 1.79086-4 4s1.79086 4 4 4z"/></g></svg>

<svg width="24" height="24" viewBox="0 0 24 24" fill="none" xmlns="http://www.w3.org/2000/svg">
<path d="M20 21V19C20 17.9391 19.5786 16.9217 18.8284 16.1716C18.0783 15.4214 17.0609 15 16 15H8C6.93913 15 5.92172 15.4214 5.17157 16.1716C4.42143 16.9217 4 17.9391 4 19V21" stroke="#98BFF9" stroke-width="2" stroke-linecap="round" stroke-linejoin="round"/>
<path d="M12 11C14.2091 11 16 9.20914 16 7C16 4.79086 14.2091 3 12 3C9.79086 3 8 4.79086 8 7C8 9.20914 9.79086 11 12 11Z" stroke="#98BFF9" stroke-width="2" stroke-linecap="round" stroke-linejoin="round"/>
</svg>
